src/components/skjema/opplysninger/malform-panel/veileder.svg

<svg version="1.1" id="Layer_1" xmlns="http://www.w3.org/2000/svg" x="0" y="0" viewBox="0 0 40 40" xml:space="preserve" enable-background="new 0 0 40 40"><style>.st5{fill:#59514b}</style><circle cx="20" cy="20" r="20" fill="#99bdcd"/><defs><filter id="Adobe_OpacityMaskFilter" filterUnits="userSpaceOnUse" x="2.4" y="2.8" width="35.8" height="51.1"><feColorMatrix values="1 0 0 0 0 0 1 0 0 0 0 0 1 0 0 0 0 0 1 0"/></filter></defs><mask maskUnits="userSpaceOnUse" x="2.4" y="2.8" width="35.8" height="51.1" id="mask-2_2_"><g filter="url(#Adobe_OpacityMaskFilter)"><circle id="path-1_2_" cx="20" cy="20" r="20" fill="#fff"/></g></mask><g id="mennesker_x2F_kvinne_x2F_-forfra" mask="url(#mask-2_2_)"><g transform="translate(1.25 1.73)" id="Group_2_"><g id="Group-2" transform="translate(6.706 3.313)"><g id="hud"><path id="Combined-Shape" d="M12.2.3c6 0 10.9 5.4 11.4 12.3.4.2.7.6.7 1.1v3.7c0 .6-.4 1.1-1 1.2H23c-1 3.1-2.8 5.6-5.2 7.2l.1 1.4v.1l-1.3 11.3H8.3v-.2L6.7 27.1l.1-1.4c-2.4-1.6-4.3-4.1-5.3-7.2h-.1c-.6 0-1.1-.5-1.1-1.2v-3.7c0-.4.2-.8.6-1C1.4 5.7 6.3.3 12.2.3z" fill="#e7e5e2"/></g><g id="mennesker_x2F_X_x2699__xFE0F__x2F__x2699__xFE0F_-ansikt-voksen_x2F_forfra_x2F_-blid" transform="translate(3.318 12.284)"><g id="Group" transform="translate(4.235 .5)"><path id="Fill-42" class="st5" d="M.8 2.5c-.7.1-.9-1-.7-1.7C.1.6.4 0 .8 0c.4 0 .6.3.6.4.4.7.2 2-.6 2.1"/><path id="Fill-44" class="st5" d="M9.3 2.5c.7.1.9-1 .7-1.7-.1-.2-.3-.8-.7-.8-.5 0-.7.3-.7.4-.3.7-.1 2 .7 2.1"/><path id="Stroke-46" class="st5" d="M5.3 3.6c.4-.1.7 0 .8.1.4.5.3 1.1-.4 1.5-.3.2-.8.3-1.1.2-.1-.1-.3 0-.3.1-.1.1 0 .3.1.4.4.2 1.1.1 1.6-.2.9-.6 1.2-1.5.5-2.3-.2-.4-.7-.5-1.3-.4-.1.1-.2.2-.2.3s.2.3.3.3z"/><path id="Stroke-48" class="st5" d="M8.5 7.1c0 .1-.1.1-.2.3-.2.2-.4.5-.6.7-.8.6-1.7.9-2.9.9s-2.1-.4-2.9-.9c-.2-.2-.5-.5-.6-.7-.1-.1-.2-.2-.2-.3C1 7 .8 7 .7 7c-.2.1-.2.2-.1.4 0 .1.1.2.2.3.2.3.5.5.8.7.8.6 1.9 1 3.2 1.1 1.4 0 2.5-.4 3.3-1.1.3-.2.5-.5.7-.7.1-.2.1-.3.2-.4 0-.1 0-.2-.2-.3-.1 0-.3 0-.3.1z"/></g></g></g><g id="Group-1"><path d="M24.2 29.4c0 2.5-2.4 5-5.2 5-2.9 0-5.2-2.6-5.2-5.1-1.5.4-3.7 1.5-5.6 3.4C6.5 34.5 5 37.3 5 39.4v12.8h28V39.4c0-2.1-1.5-4.9-3.3-6.7-1.8-1.8-4-2.9-5.5-3.3z" fill="#66a4dc"/><path d="M32.2 16.6c0-9.2-5-15.5-13.2-15.5S5.8 7.4 5.8 16.6c0 7.8-4.6 12.3-4.6 12.3s2.2 2.6 7.3 3.7c1.7-1.6 4-2.7 5.4-3.2v-.5c-2.5-1.6-4.4-4.2-5.4-7.4-.1 0-.2.1-.3.1-.5 0-.8-.4-.8-.9V17c0-.4.2-.7.5-.9l.3-.6c1.9-3.3 5.7-6 5.7-6 .3 0 4.6 7.9 16.3 6.6.4.1.6.5.6.9v3.7c0 .5-.4.9-.8.9-.1 0-.3 0-.4-.1-.9 3.2-2.8 5.8-5.3 7.4l.1.6c1.3.5 3.7 1.6 5.4 3.1 5-1.1 7.3-3.7 7.3-3.7s-4.9-4.5-4.9-12.3z" fill="#3e3832"/></g></g></g></svg>

<?xml version="1.0" encoding="utf-8"?>
<!-- Generator: Adobe Illustrator 22.1.0, SVG Export Plug-In . SVG Version: 6.00 Build 0)  -->
<svg version="1.1" id="Layer_1" xmlns="http://www.w3.org/2000/svg" xmlns:xlink="http://www.w3.org/1999/xlink" x="0px" y="0px"
	 viewBox="0 0 40 40" style="enable-background:new 0 0 40 40;" xml:space="preserve">
<style type="text/css">
	.st0{fill:#99BDCD;}
	.st1{filter:url(#Adobe_OpacityMaskFilter);}
	.st2{fill:#FFFFFF;}
	.st3{mask:url(#mask-2_2_);}
	.st4{fill:#E7E5E2;}
	.st5{fill:#59514B;}
	.st6{fill:#66A4DC;}
	.st7{fill:#3E3832;}
</style>
<g id="Mask">
</g>
<circle class="st0" cx="20" cy="20" r="20"/>
<defs>
	<filter id="Adobe_OpacityMaskFilter" filterUnits="userSpaceOnUse" x="2.4" y="2.8" width="35.8" height="51.1">
		<feColorMatrix  type="matrix" values="1 0 0 0 0  0 1 0 0 0  0 0 1 0 0  0 0 0 1 0"/>
	</filter>
</defs>
<mask maskUnits="userSpaceOnUse" x="2.4" y="2.8" width="35.8" height="51.1" id="mask-2_2_">
	<g class="st1">
		<circle id="path-1_2_" class="st2" cx="20" cy="20" r="20"/>
	</g>
</mask>
<g id="mennesker_x2F_kvinne_x2F_-forfra" class="st3">
	<g id="Group_2_" transform="translate(1.250000, 0.625000)">
		<g transform="translate(0.000000, 1.104167)">
			<g id="Group-2" transform="translate(6.705882, 3.312500)">
				<g id="hud">
					<path id="Combined-Shape" class="st4" d="M12.2,0.3c6,0,10.9,5.4,11.4,12.3c0.4,0.2,0.7,0.6,0.7,1.1v3.7c0,0.6-0.4,1.1-1,1.2
						l-0.1,0c-0.1,0-0.1,0-0.2,0c-1,3.1-2.8,5.6-5.2,7.2l0.1,1.4l0,0.1l-1.3,11.3H8.3l0-0.2L6.7,27.1l0.1-1.4
						c-2.4-1.6-4.3-4.1-5.3-7.2l-0.1,0c-0.6,0-1.1-0.5-1.1-1.2v-3.7c0-0.4,0.2-0.8,0.6-1C1.4,5.7,6.3,0.3,12.2,0.3z"/>
				</g>
				
					<g id="mennesker_x2F_X_x2699__xFE0F__x2F__x2699__xFE0F_-ansikt-voksen_x2F_forfra_x2F_-blid" transform="translate(3.318015, 12.283854)">
					<g id="Group" transform="translate(4.235294, 0.500000)">
						<path id="Fill-42" class="st5" d="M0.8,2.5c-0.7,0.1-0.9-1-0.7-1.7C0.1,0.6,0.4,0,0.8,0c0.4,0,0.6,0.3,0.6,0.4
							C1.8,1.1,1.6,2.4,0.8,2.5"/>
						<path id="Fill-44" class="st5" d="M9.3,2.5c0.7,0.1,0.9-1,0.7-1.7C9.9,0.6,9.7,0,9.3,0C8.8,0,8.6,0.3,8.6,0.4
							C8.3,1.1,8.5,2.4,9.3,2.5"/>
						<path id="Stroke-46" class="st5" d="M5.3,3.6c0.4-0.1,0.7,0,0.8,0.1c0.4,0.5,0.3,1.1-0.4,1.5C5.4,5.4,4.9,5.5,4.6,5.4
							c-0.1-0.1-0.3,0-0.3,0.1c-0.1,0.1,0,0.3,0.1,0.4C4.8,6.1,5.5,6,6,5.7c0.9-0.6,1.2-1.5,0.5-2.3C6.3,3,5.8,2.9,5.2,3
							C5.1,3.1,5,3.2,5,3.3S5.2,3.6,5.3,3.6z"/>
						<path id="Stroke-48" class="st5" d="M8.5,7.1c0,0.1-0.1,0.1-0.2,0.3C8.1,7.6,7.9,7.9,7.7,8.1C6.9,8.7,6,9,4.8,9
							C3.6,9,2.7,8.6,1.9,8.1C1.7,7.9,1.4,7.6,1.3,7.4C1.2,7.3,1.1,7.2,1.1,7.1C1,7,0.8,7,0.7,7C0.5,7.1,0.5,7.2,0.6,7.4
							c0,0.1,0.1,0.2,0.2,0.3C1,8,1.3,8.2,1.6,8.4c0.8,0.6,1.9,1,3.2,1.1c1.4,0,2.5-0.4,3.3-1.1c0.3-0.2,0.5-0.5,0.7-0.7
							C8.9,7.5,8.9,7.4,9,7.3C9,7.2,9,7.1,8.8,7C8.7,7,8.5,7,8.5,7.1z"/>
					</g>
				</g>
			</g>
			<g id="Group-1">
				<path class="st6" d="M24.2,29.4c0,2.5-2.4,5-5.2,5c-2.9,0-5.2-2.6-5.2-5.1l0,0c-1.5,0.4-3.7,1.5-5.6,3.4C6.5,34.5,5,37.3,5,39.4
					v12.8h28V39.4c0-2.1-1.5-4.9-3.3-6.7C27.9,30.9,25.7,29.8,24.2,29.4z"/>
				<path class="st7" d="M32.2,16.6c0-9.2-5-15.5-13.2-15.5c-8.2,0-13.2,6.3-13.2,15.5v0c0,7.8-4.6,12.3-4.6,12.3s2.2,2.6,7.3,3.7
					c1.7-1.6,4-2.7,5.4-3.2h0l0-0.5l0,0c-2.5-1.6-4.4-4.2-5.4-7.4c-0.1,0-0.2,0.1-0.3,0.1c-0.5,0-0.8-0.4-0.8-0.9v-3.7
					c0-0.4,0.2-0.7,0.5-0.9c0,0,0.3-0.6,0.3-0.6c1.9-3.3,5.7-6,5.7-6c0.3,0,4.6,7.9,16.3,6.6c0,0,0,0,0,0c0.4,0.1,0.6,0.5,0.6,0.9
					v3.7c0,0.5-0.4,0.9-0.8,0.9c-0.1,0-0.3,0-0.4-0.1c-0.9,3.2-2.8,5.8-5.3,7.4l0,0l0.1,0.6l0,0c1.3,0.5,3.7,1.6,5.4,3.1l0,0
					c5-1.1,7.3-3.7,7.3-3.7S32.2,24.4,32.2,16.6L32.2,16.6z"/>
			</g>
		</g>
	</g>
</g>
</svg>
